icons/jiraalign/jiraalign-plain-wordmark.svg

<?xml version="1.0" encoding="UTF-8"?>
<svg xmlns="http://www.w3.org/2000/svg" xmlns:xlink="http://www.w3.org/1999/xlink" width="128px" height="128px" viewBox="0 0 128 128" version="1.1">
<g id="surface1">
<path style=" stroke:none;fill-rule:nonzero;fill:rgb(0%,0%,0%);fill-opacity:1;" d="M 87.757812 51.738281 L 87.757812 67.433594 C 87.757812 69.914062 89.203125 70.960938 91.46875 70.960938 C 92.097656 70.960938 92.507812 70.898438 92.695312 70.835938 L 92.695312 68.753906 C 92.414062 68.78125 92.257812 68.78125 92.003906 68.78125 C 90.964844 68.78125 90.148438 68.351562 90.148438 67.128906 L 90.148438 51.738281 Z M 38.449219 52.199219 C 37.476562 52.199219 36.78125 52.78125 36.78125 53.824219 C 36.78125 54.867188 37.476562 55.449219 38.449219 55.449219 C 39.425781 55.449219 40.117188 54.835938 40.117188 53.824219 C 40.117188 52.78125 39.425781 52.199219 38.449219 52.199219 Z M 96.21875 52.199219 C 95.246094 52.199219 94.550781 52.78125 94.550781 53.824219 C 94.550781 54.867188 95.246094 55.449219 96.21875 55.449219 C 97.195312 55.449219 97.886719 54.835938 97.886719 53.824219 C 97.886719 52.78125 97.195312 52.199219 96.21875 52.199219 Z M 31.464844 53.148438 L 31.464844 65.625 C 31.464844 67.402344 30.738281 68.628906 28.632812 68.628906 C 27.71875 68.628906 26.808594 68.476562 26.050781 68.167969 L 26.050781 70.53125 C 26.742188 70.777344 27.753906 70.988281 29.042969 70.988281 C 32.472656 70.988281 33.949219 68.71875 33.949219 65.472656 L 33.949219 53.148438 Z M 75.796875 53.148438 L 68.625 70.867188 L 71.425781 70.867188 L 72.933594 66.882812 C 74.476562 67.15625 75.894531 67.34375 77.308594 67.34375 C 78.757812 67.34375 80.171875 67.191406 81.808594 66.851562 L 83.320312 70.867188 L 86.121094 70.867188 L 78.945312 53.148438 Z M 0 54.183594 C 0 57.453125 2.644531 60.117188 5.886719 60.117188 L 11.328125 60.117188 L 11.328125 65.640625 L 17.210938 65.640625 L 17.210938 55.167969 C 17.210938 54.660156 16.800781 54.214844 16.300781 54.214844 Z M 11.328125 65.640625 L 5.886719 65.640625 L 5.886719 60.117188 L 0 60.117188 L 0 70.59375 C 0 71.101562 0.410156 71.542969 0.910156 71.542969 L 17.179688 71.542969 C 17.179688 68.285156 14.554688 65.660156 11.328125 65.640625 Z M 77.371094 55.109375 L 81.054688 64.828125 C 79.640625 65.042969 78.441406 65.164062 77.277344 65.195312 C 76.179688 65.195312 75.042969 65.070312 73.691406 64.855469 Z M 57.265625 57.101562 C 53.394531 57.101562 51.445312 60.320312 51.445312 64.121094 C 51.445312 68.105469 53.304688 71.140625 56.984375 71.140625 C 59.125 71.140625 60.789062 70.222656 61.671875 68.445312 L 61.671875 70.863281 L 64.0625 70.863281 L 64.0625 57.378906 L 61.671875 57.378906 L 61.671875 59.742188 C 60.855469 57.992188 59.277344 57.105469 57.265625 57.105469 Z M 105.910156 57.101562 C 102.074219 57.101562 100.152344 60.320312 100.152344 64.121094 C 100.152344 68.105469 101.976562 71.140625 105.628906 71.140625 C 107.769531 71.140625 109.433594 70.222656 110.316406 68.445312 L 110.316406 69.730469 C 110.316406 72.246094 109.121094 74.054688 105.660156 74.054688 C 103.960938 74.054688 102.355469 73.746094 100.847656 73.257812 L 100.847656 75.523438 C 102.199219 75.953125 103.457031 76.261719 105.785156 76.261719 C 110.726562 76.261719 112.644531 73.59375 112.644531 69.640625 L 112.644531 57.378906 L 110.316406 57.378906 L 110.316406 59.738281 C 109.496094 57.992188 107.925781 57.105469 105.910156 57.105469 Z M 122.96875 57.132812 C 121.109375 57.132812 119.472656 58.023438 118.59375 59.617188 L 118.59375 57.410156 L 116.203125 57.410156 L 116.203125 70.894531 L 118.59375 70.894531 L 118.59375 63.386719 C 118.59375 60.660156 120.132812 59.21875 122.335938 59.21875 C 124.601562 59.21875 125.609375 60.289062 125.609375 62.714844 L 125.609375 70.863281 L 127.96875 70.863281 L 127.96875 62.988281 C 127.96875 59.277344 126.144531 57.136719 122.96875 57.136719 Z M 50.011719 57.148438 C 47.625 57.152344 46.359375 58.246094 45.59375 59.738281 L 45.59375 57.378906 L 43.265625 57.378906 L 43.265625 70.867188 L 45.59375 70.867188 L 45.59375 62.898438 C 45.59375 60.015625 47.449219 59.128906 50.503906 59.433594 L 50.503906 57.164062 C 50.339844 57.15625 50.175781 57.152344 50.011719 57.152344 Z M 37.253906 57.378906 L 37.253906 70.863281 L 39.644531 70.863281 L 39.644531 57.378906 Z M 94.992188 57.378906 L 94.992188 70.863281 L 97.382812 70.863281 L 97.382812 57.378906 Z M 57.863281 59.246094 C 59.910156 59.246094 61.640625 60.566406 61.640625 63.570312 L 61.640625 64.644531 C 61.640625 67.648438 59.753906 68.964844 57.613281 68.964844 C 55.160156 68.964844 53.835938 67.371094 53.804688 64.089844 C 53.804688 60.964844 55.191406 59.246094 57.863281 59.246094 Z M 106.511719 59.246094 C 108.554688 59.246094 110.285156 60.566406 110.285156 63.570312 L 110.285156 64.644531 C 110.285156 67.648438 108.398438 68.964844 106.257812 68.964844 C 103.804688 68.964844 102.484375 67.371094 102.449219 64.089844 C 102.449219 60.964844 103.835938 59.246094 106.511719 59.246094 Z M 106.511719 59.246094 "/>
</g>
</svg>

<svg xmlns="http://www.w3.org/2000/svg" fill="none" viewBox="0 0 128 128"><path fill="#000" d="M87.756 51.738v15.696c0 2.482 1.447 3.525 3.713 3.525.63 0 1.039-.062 1.228-.123v-2.084c-.283.03-.441.03-.693.03-1.038 0-1.856-.429-1.856-1.655V51.738h-2.392zM38.45 52.2c-.975 0-1.668.583-1.668 1.625s.693 1.623 1.668 1.623c.976 0 1.666-.611 1.666-1.623 0-1.042-.69-1.625-1.666-1.625zm57.77 0c-.975 0-1.668.583-1.668 1.625s.693 1.623 1.668 1.623 1.668-.611 1.668-1.623c0-1.042-.693-1.625-1.668-1.625zm-64.756.95v12.476c0 1.778-.724 3.004-2.832 3.004-.913 0-1.825-.155-2.58-.461v2.361c.692.246 1.7.46 2.99.46 3.43 0 4.908-2.27 4.908-5.518V53.148h-2.486zm44.334 0-7.174 17.716h2.8l1.51-3.984c1.542.276 2.96.46 4.376.46 1.447 0 2.861-.152 4.498-.49l1.511 4.014h2.801l-7.176-17.717H75.8zM0 54.183c0 3.269 2.644 5.935 5.885 5.935h5.443v5.524h5.883V55.168c0-.508-.409-.953-.912-.953L0 54.184zm11.328 11.459H5.885v-5.524H0v10.475c0 .508.409.95.912.95H17.18c0-3.258-2.625-5.884-5.852-5.901zM77.373 55.11l3.682 9.717c-1.416.215-2.612.337-3.776.367-1.101 0-2.235-.123-3.588-.338l3.682-9.746zm-20.107 1.993c-3.87 0-5.82 3.218-5.82 7.019 0 3.985 1.857 7.02 5.538 7.02 2.14 0 3.807-.92 4.688-2.698v2.42h2.39V57.38h-2.39v2.361c-.818-1.747-2.393-2.636-4.406-2.636zm48.646 0c-3.839 0-5.758 3.218-5.758 7.019 0 3.985 1.824 7.02 5.475 7.02 2.14 0 3.806-.92 4.687-2.698v1.287c0 2.514-1.195 4.323-4.656 4.323-1.699 0-3.304-.307-4.814-.797v2.267c1.353.43 2.61.737 4.94.737 4.94 0 6.859-2.667 6.859-6.621V57.379h-2.329v2.361c-.818-1.747-2.391-2.636-4.404-2.636zm17.055.03c-1.857 0-3.494.89-4.375 2.483V57.41h-2.39v13.486h2.39v-7.51c0-2.727 1.542-4.167 3.744-4.167 2.265 0 3.273 1.072 3.273 3.494v8.152h2.36v-7.877c0-3.709-1.824-5.853-5.002-5.853zm-72.957.016c-2.385.005-3.65 1.096-4.416 2.59V57.38h-2.33v13.486h2.33v-7.969c0-2.88 1.856-3.769 4.908-3.462v-2.27a8.444 8.444 0 0 0-.492-.014zm-12.756.229v13.486h2.392V57.38h-2.392zm57.74 0v13.486h2.39V57.38h-2.39zm-37.129 1.869c2.045 0 3.776 1.318 3.776 4.322v1.075c0 3.003-1.888 4.32-4.028 4.32-2.454 0-3.777-1.593-3.808-4.873 0-3.127 1.386-4.844 4.06-4.844zm48.645 0c2.045 0 3.775 1.318 3.775 4.322v1.075c0 3.003-1.887 4.32-4.027 4.32-2.454 0-3.775-1.593-3.807-4.873 0-3.127 1.385-4.844 4.059-4.844z"/></svg>
